modules/feathericon/icons/train.svg

<?xml version="1.0" encoding="UTF-8"?>
<svg width="24px" height="24px" viewBox="0 0 24 24" version="1.1" xmlns="http://www.w3.org/2000/svg" xmlns:xlink="http://www.w3.org/1999/xlink">
    <!-- Generator: sketchtool 52.2 (67145) - http://www.bohemiancoding.com/sketch -->
    <title>train</title>
    <desc>Created with sketchtool.</desc>
    <g id="vehicles" stroke="none" stroke-width="1" fill="none" fill-rule="evenodd">
        <g id="train" fill="#000000">
            <path d="M15,18.9320802 C14.0341363,19 12.9983894,19 11.96,19 C10.9457257,19 9.93901506,19 9,18.9367031 L9,21 L6,21 L6,20 L6.71142745,18.5771451 C5.08937575,18.1057048 4,17.1086563 4,15 L4,7 C4,3 7.95536893,3 12,3 C16.0446311,3 20,3 20,7 L20,15 C20,17.0924556 18.9054074,18.0903186 17.2830928,18.5661856 L18,20 L18,21 L15,21 L15,18.9320802 Z M7,16 C7.55228475,16 8,15.5522847 8,15 C8,14.4477153 7.55228475,14 7,14 C6.44771525,14 6,14.4477153 6,15 C6,15.5522847 6.44771525,16 7,16 Z M17,16 C17.5522847,16 18,15.5522847 18,15 C18,14.4477153 17.5522847,14 17,14 C16.4477153,14 16,14.4477153 16,15 C16,15.5522847 16.4477153,16 17,16 Z M6,6 L6,12 L18,12 L18,6 L6,6 Z" id="Shape"></path>
        </g>
    </g>
</svg>

<svg width="24" height="24" viewBox="0 0 24 24" xmlns="http://www.w3.org/2000/svg"><path d="M15 18.932c-.966.068-2.002.068-3.04.068-1.014 0-2.021 0-2.96-.063V21H6v-1l.711-1.423C5.09 18.106 4 17.11 4 15V7c0-4 3.955-4 8-4s8 0 8 4v8c0 2.092-1.095 3.09-2.717 3.566L18 20v1h-3v-2.068zM7 16a1 1 0 1 0 0-2 1 1 0 0 0 0 2zm10 0a1 1 0 1 0 0-2 1 1 0 0 0 0 2zM6 6v6h12V6H6z" fill="#000" fill-rule="evenodd"/></svg>
